X:1
T: Mist on the Mountain
C: J-44
C: Bruce A. Randall  1994
M: 6/8
Z:
R: jig
K: Am
E| "Am"cAc "G"BAG| "Am"E2A A2B| cBc "Dm"dcd| "E"e3- e2e|
   "Dm"fdf "Am"ece| "G"dBd "C"c2d| "Am"edc "G"BAG| "Am"A3- A2:|
|:\
c| "C"ece "G"dBG| "Am"cAc "E"B^GE| "Am"AEA "E"BEB| "Am"c3 "G"dcd|
   "C"ece "G"dBd| "Am"cAc "E"B^GB| "Am"cBA "E"B2^G| "Am"A3- A2:|
%
